!!!COM: Felix Mendelssohn
!!!CNT: Deutsch
!!!TXO: Deutsch
!!!OTL: Fru2hlingslied
!!!LYR: In schwa2bischer Mundart. _Friederike Robert
!!!OPS: Op. 8
!!!ONM: No. 6
!!!ENC: Daniel Alt & Leigh VanHandel
!!!YOR: Sa2mmtliche Lieder fu2r eine Singstimme 
!!!YOR: Neu revidirt von Dr. L. Benda, Ausgabe fu2r mittlere Stimme
!!!YOR: Braunschweig. Henry Litolff's Verlag. Boston and New York: Arthur P. Schmidt.
!!!ODT: 1824/
**kern	**silbe
*staff1	*
=1-	=1
*clefG2	*
*k[f#c#]	*
*M6/8	*
2.r	.
=2	=2
2.r	.
=3	=3
2.r	.
=4	=4
2.r	.
=5	=5
2.r	.
=6	=6
2.r	.
=7	=7
2.r	.
=8	=8
4r	.
8r	.
{8a	{Jetzt
8g	kommt
8f#	der
=9	=9
f#q	Fru2h-
8e	|
8d#	-ling,
8e	der
8g	Him-
8f#	-mel
8e	isch
=10	=10
4d	blau,
8dd	|
4.a}	|}
=11	=11
2.r	.
=12	=12
4r	.
{8a	{die
8a	Weg-
8a	-le
8b	sin
=13	=13
8cc#	truck-
8cc#	-en,
8dd	die
8b	Lu2f-
8b	-te
8ee	geh’n
=14	=14
4a}	lau.}
8r	.
{8ee	{Jetzt
8dd	kommt
8cc#	der
=15	=15
4.b	Fru2h-
8e}	-ling,}
8r	.
8r	.
=16	=16
4r	.
{8cc#	{der
8ee	Him-
8dd	-mel
8cc#	isch
=17	=17
4.b	blau!
8e}	|}
8r	.
8r	.
=18	=18
4r	.
8r	.
{8a	{jetzt
8g#	kommt
8a	der
=19	=19
8b	Fru2h-
8a	-ling,
8b	der
8cc#	Him-
8b	-mel
8cc#	isch
=20	=20
8dd}	blau,}
8r	.
{8f#	{die
8f#	Weg-
8g	-le
8a	sin
=21	=21
8b	tru-
8cc#	-cken,
8dd	die
8.f#	Lu2f-
16g	-te
8e	geh’n
=22	=22
4a}	lau,}
8r	.
{[4.dd	{jetzt
=23	=23
8dd]	|
16dd	kommt
16b	|
16g	der
16e	|
4d	Fru2h-
16f#	|
16e	|
=24	=24
4d}	-ling!}
8r	.
4r	.
8r	.
=25	=25
2.r	.
=26	=26
2.r	.
=27	=27
2.r	.
=28	=28
4r	.
8r	.
{8a	{Jetzt
8g	kommt
8f#	der
=29	=29
f#q	Fru2h-
8e	|
8d#	-ling,
8e	die
8g	Vo2g-
8f#	-le
8e	im
=30	=30
4d	Wald
8dd	|
4.a}	|}
=31	=31
2.r	.
=32	=32
{[4.a	{zwit-
8a]	|
8a	-schern
8b	und
=33	=33
8cc#	lo-
8cc#	-cka
16dd	ih-
16cc#	-re
8b	Weib-
8b	-le
16b	wol
16cc#	|
=34	=34
4a}	bald.}
8r	.
{8ee	{Jetzt
8dd	kommt
8cc#	der
=35	=35
4.b	Fru2h-
8e	-ling,
8r	.
8r	.
=36	=36
4r	.
16a	die
16cc#	|
8ee	Vo2g
8dd	-le
8cc#	im
=37	=37
4.b	Wald
8e}	|}
8r	.
8r	.
=38	=38
{[4.a	{zwit-
8a]	|
8g#	-schern
8a	und
=39	=39
8b	lo-
8a	-cka
16b	ih-
16b	-re
8cc#	Weib-
8b	-le
8cc#	wol
=40	=40
4dd}	bald,}
8r	.
{8f#	{zwit-
8g	-schern
8a	und
=41	=41
8b	lo-
8cc#	-cka
16dd	ih-
16dd	-re
8.f#	Weib-
16g	-le
8e	wol
=42	=42
4d}	bald.}
8r	.
{[4.dd	{Jetzt
=43	=43
8dd]	|
16dd	kommt
16b	|
16g	der
16e	|
4d	Fru2h-
16f#	|
16e	|
=44	=44
4d}	-ling!}
8r	.
4r	.
8r	.
=45	=45
2.r	.
=46	=46
2.r	.
=47	=47
2.r	.
=48	=48
{[4.a	{Jetzt
8a]	|
8g	kommt
8f#	der
=49	=49
f#q	Fru2h-
8e	|
8d#	-ling,
8e	die
8g	Ba2hm
8f#	schl-
8e	-age
=50	=50
4d}	aus,}
8r	.
4r	.
8r	.
=51	=51
2.r	.
=52	=52
8r	.
8r	.
{8f#	{un
8f#	i
8f#	bring
8g#	mei
=53	=53
8a	Scha2tz-
8b	-le
8cc#	ein
8b	Vei-
8cc#	-ge-
8b	-le-
=54	=54
4a}	-strauss.}
8r	.
4r	.
8r	.
=55	=55
4r	.
8r	.
{8dd	{Jetzt
8cc#	kommt
8b	der
=56	=56
4.a	Fru2h-
8e	-ling,
8r	.
8e	die
=57	=57
[4.dd	Ba2hm
8dd]	|
8cc#	schla-
8b	-ge
=58	=58
4a	aus,
8r	.
8a	jetzt
8g#	kommt
8a	der
=59	=59
8b	Fru2h-
8a	-ling,
8b	die
8cc#	Ba2hm
8b	schla-
8cc#	-ge
=60	=60
8dd}	aus,}
8r	.
{8f#	{un
8f#	i
8g	bring
8a	mei
=61	=61
8b	Scha2tz-
8cc#	-le
8dd	ein
8.f#	Vei-
16g	-ge-
8e	-le-
=62	=62
8a	-strauss,
8r	.
8dd	ein
[4.dd	Vei-
=63	=63
8dd]	|
16cc#	|
16b	|
16g	|
16e	|
8a	|
8f#	-ge-
8e	-le-
=64	=64
4d}	-strauss,}
8r	.
4r	.
8r	.
=65	=65
4r	.
8r	.
{4.dd	{ein
=66	=66
2.dd	Vei-
=67	=67
8c#	|
8e	|
8g	|
4b	|
16a	-ge-
16c#	-le-
=68	=68
4d}	-strauss.}
8r	.
4r	.
8r	.
==	==
*-	*-
